X: 92
T: Miss Annie MacKinnon
R:Reel
C:Keith N. MacDonald
S:MacDonald - Skye Collection
N:pg.181
M:C
L:1/8
K:A Mix
e|AAeA cAeA|(f<g) dB GBdG|AAeA cAeA|{f}g2 dB A<A A:|
e|AAce aeef|g2 dB GBdB|AAeA aeef|g2 (fd) e2 Ae|AAeA aeef|
g2 dB GBdB|AAcA eAcA|BGdB A2A2||


